static/logos/planetscale-wordmark-color.svg

<svg width="100" height="17" viewBox="0 0 100 17" fill="none" xmlns="http://www.w3.org/2000/svg">
<g clip-path="url(#clip0_1_1650)">
<path d="M0 8.01271C3.76724e-07 3.5874 3.5874 -3.76724e-07 8.01271 0C11.2664 2.8445e-07 14.0672 1.93937 15.3221 4.7252L4.7252 15.3221C4.27049 15.1173 3.8383 14.8712 3.43341 14.5888L10.0095 8.01271H8.01271L2.34687 13.6785C0.896855 12.2285 -1.93436e-07 10.2253 0 8.01271Z" fill="black"/>
<path d="M16.0254 8.01546L8.01546 16.0254C12.4386 16.0239 16.0239 12.4386 16.0254 8.01546Z" fill="black"/>
<path fill-rule="evenodd" clip-rule="evenodd" d="M20.2734 2.43558V13.3825H21.8041V9.9892H24.0901C26.1685 9.96809 27.861 8.39608 27.861 6.33329C27.861 4.04508 26.2139 2.43558 24.0986 2.43558H20.2734ZM26.396 6.23156C26.396 7.51408 25.3489 8.64119 24.0719 8.64794C23.6749 8.64772 23.278 8.64783 22.8811 8.6479C22.522 8.64801 22.163 8.64808 21.8041 8.64794V3.78574L24.0606 3.78585C25.3426 3.78585 26.396 4.8814 26.396 6.23156Z" fill="black"/>
<path d="M89.3047 13.3827V2.43576L90.244 2.43564C90.5295 2.43558 90.7216 2.43554 90.8433 2.43565V13.3827H89.3047Z" fill="black"/>
<path d="M30.1948 13.3827V2.4419C29.9232 2.44178 29.6843 2.44178 29.2519 2.4418L28.6562 2.44181V13.3827H30.1948Z" fill="black"/>
<path fill-rule="evenodd" clip-rule="evenodd" d="M39.6751 13.3827V5.18729H38.1365V6.34116H38.1068C37.4707 5.40918 36.4647 4.96541 35.2666 4.96541C32.8553 4.96541 30.9766 6.79975 30.9766 9.41814C30.9766 11.7851 32.9293 13.5898 35.3257 13.5898C36.4944 13.5898 37.53 13.0869 38.1068 12.1105H38.1365V13.3827H39.6751ZM35.3108 12.1845C33.7725 12.1845 32.515 10.8383 32.515 9.29979C32.515 7.68733 33.7725 6.37074 35.3108 6.37074C37.0122 6.37074 38.1661 7.70215 38.1661 9.29979C38.1661 10.8531 36.9088 12.1845 35.3108 12.1845Z" fill="black"/>
<path d="M48.2559 13.3827V8.47137C48.2559 6.20801 46.8062 4.96541 44.8386 4.96541C43.8919 4.96541 43.0487 5.27607 42.4422 6.06008H42.4126V5.18729H40.875V13.3827H42.5164V8.90039C42.5164 7.36191 43.33 6.37074 44.6759 6.37074C46.037 6.37074 46.7176 7.18436 46.7176 8.91518V13.3827H48.2559Z" fill="black"/>
<path fill-rule="evenodd" clip-rule="evenodd" d="M57.3687 9.89206C57.4044 9.63629 57.4044 9.41525 57.4044 9.18147C57.4044 6.82933 55.5699 4.96541 53.1587 4.96541C50.9839 4.96541 49.0312 6.77017 49.0312 9.35898C49.0312 11.5484 50.8953 13.5898 53.2032 13.5898C54.9635 13.5898 56.5021 12.4951 57.1382 10.8087H55.5996C55.1262 11.6815 54.224 12.1845 53.2621 12.1845C52.0168 12.1845 50.9455 11.3282 50.5801 9.98941H57.3525C57.3585 9.9581 57.3638 9.9252 57.3687 9.89206ZM50.5826 8.64808C50.7598 7.30618 51.9815 6.37074 53.2032 6.37074C54.4817 6.37074 55.6769 7.31959 55.853 8.64808H50.5826Z" fill="black"/>
<path d="M68.6004 5.17141H70.3127C70.0518 3.82736 68.5174 2.43576 66.4539 2.43576C64.295 2.43576 62.6403 3.67028 62.6403 5.52467C62.6403 7.02185 63.7105 7.94035 65.4387 8.40787L66.7101 8.75461C67.8605 9.0593 68.7514 9.46467 68.7514 10.4208C68.7514 11.4714 67.7483 12.1648 66.3663 12.1648C65.2647 12.1648 64.3257 11.7323 64.0539 10.8276H62.3438C62.6244 12.4857 64.0998 13.5885 66.3769 13.5885C68.9039 13.5885 70.3589 12.2594 70.3589 10.4365C70.3589 8.49806 68.6275 7.7197 67.2619 7.38348L66.211 7.11034C65.3706 6.89495 64.253 6.45976 64.258 5.43011C64.258 4.51606 65.0935 3.78574 66.4172 3.78574C67.5495 3.78574 68.3815 4.32464 68.6004 5.17141Z" fill="black"/>
<path d="M79.1129 10.8276C78.4313 12.583 76.9 13.5898 75.1309 13.5898C72.7786 13.5898 70.9297 11.6963 70.9297 9.35898C70.9297 6.88853 72.7193 4.96541 75.1161 4.96541C76.923 4.96541 78.5774 6.06389 79.1214 7.74864H77.3868C76.924 6.8838 76.2068 6.37074 75.1605 6.37074C73.5478 6.37074 72.468 7.59859 72.468 9.27021C72.468 10.8975 73.5774 12.1845 75.1309 12.1845C76.1235 12.1845 76.9315 11.6822 77.379 10.8276H79.1129Z" fill="black"/>
<path fill-rule="evenodd" clip-rule="evenodd" d="M88.1044 5.18729V13.3827H86.5661V12.1105H86.5365C85.9594 13.0869 84.9241 13.5898 83.7553 13.5898C81.3589 13.5898 79.4062 11.7851 79.4062 9.41814C79.4062 6.79975 81.2848 4.96541 83.6961 4.96541C84.8944 4.96541 85.9004 5.40918 86.5365 6.34116H86.5661V5.18729H88.1044ZM80.9445 9.29979C80.9445 10.8383 82.2019 12.1845 83.7405 12.1845C85.3381 12.1845 86.5954 10.8531 86.5954 9.29979C86.5954 7.70215 85.4419 6.37074 83.7405 6.37074C82.2019 6.37074 80.9445 7.68733 80.9445 9.29979Z" fill="black"/>
<path fill-rule="evenodd" clip-rule="evenodd" d="M99.9681 9.84727C99.9978 9.61027 99.9977 9.40159 99.9977 9.18154V9.18147C99.9977 9.14472 99.9974 9.10815 99.9967 9.07166C99.9893 8.77593 99.9529 8.48839 99.8901 8.21179C99.7747 7.70297 99.5696 7.2312 99.2904 6.81387C98.541 5.69354 97.2593 4.96541 95.7521 4.96541C93.5777 4.96541 91.625 6.77017 91.625 9.35898C91.625 9.63265 91.6539 9.90402 91.7094 10.1694C92.0976 12.0268 93.7775 13.5898 95.7966 13.5898C97.5569 13.5898 99.0955 12.4951 99.7316 10.8087H98.193C98.134 10.9178 98.068 11.0211 97.9963 11.1184C97.4933 11.7994 96.697 12.1845 95.8559 12.1845C94.6102 12.1845 93.5389 11.3282 93.1739 9.98941H99.9459C99.9483 9.97674 99.9508 9.96382 99.9529 9.95069H99.9536C99.9589 9.91557 99.9639 9.88115 99.9681 9.84727ZM93.1986 8.50875C93.439 7.24186 94.6179 6.37074 95.7966 6.37074C97.0754 6.37074 98.2703 7.31959 98.4464 8.64808H93.1764C93.1824 8.60113 93.1898 8.55468 93.1986 8.50875Z" fill="black"/>
<path d="M60.1457 5.18885H61.8644V6.53117H60.1457V11.1131C60.1457 11.9175 60.5354 12.1415 60.971 12.1824C61.0017 12.1832 61.0289 12.1842 61.0525 12.1855C61.3173 12.1997 61.5245 12.1593 61.6512 12.1176C61.8315 12.5268 62.0758 12.9014 62.3783 13.2306C61.845 13.5515 61.2117 13.6122 60.7338 13.5835C60.5033 13.5715 60.2791 13.5331 60.068 13.4683C59.1266 13.1816 58.8305 12.5054 58.7239 12.2282L58.7306 12.228C58.6498 11.9951 58.6056 11.7321 58.607 11.4388V6.53117H57.3984V5.18885H58.607V2.43576H60.1457V5.18885Z" fill="black"/>
</g>
<defs>
<clipPath id="clip0_1_1650">
<rect width="100" height="16.0254" fill="white"/>
</clipPath>
</defs>
</svg>

<svg xmlns="http://www.w3.org/2000/svg" width="376.471" height="64" fill="none" viewBox="0 0 100 17"><g fill="#000" clip-path="url(#a)"><path d="M0 8.013a8.013 8.013 0 0 1 15.322-3.288L4.725 15.322a8.005 8.005 0 0 1-1.292-.733l6.576-6.576H8.013l-5.666 5.665A7.988 7.988 0 0 1 0 8.014ZM16.025 8.015l-8.01 8.01a8.013 8.013 0 0 0 8.01-8.01Z"/><path fill-rule="evenodd" d="M20.273 2.436v10.947h1.531V9.989h2.286c2.079-.02 3.771-1.593 3.771-3.656 0-2.288-1.647-3.897-3.762-3.897h-3.826Zm6.123 3.796c0 1.282-1.047 2.41-2.324 2.416h-2.268V3.786h2.257c1.282 0 2.335 1.095 2.335 2.446Z" clip-rule="evenodd"/><path d="M89.305 13.383V2.436h1.539v10.947h-1.54ZM30.195 13.383V2.442h-1.539v10.94h1.539Z"/><path fill-rule="evenodd" d="M39.675 13.383V5.187h-1.538v1.154h-.03c-.636-.932-1.642-1.376-2.84-1.376-2.412 0-4.29 1.835-4.29 4.453 0 2.367 1.952 4.172 4.349 4.172 1.168 0 2.204-.503 2.78-1.48h.03v1.273h1.54Zm-4.364-1.198c-1.538 0-2.796-1.347-2.796-2.885 0-1.613 1.258-2.93 2.796-2.93 1.701 0 2.855 1.332 2.855 2.93 0 1.553-1.257 2.884-2.855 2.884Z" clip-rule="evenodd"/><path d="M48.256 13.383V8.47c0-2.263-1.45-3.506-3.417-3.506-.947 0-1.79.311-2.397 1.095h-.03v-.873h-1.537v8.196h1.641V8.9c0-1.538.814-2.53 2.16-2.53 1.361 0 2.042.814 2.042 2.545v4.468h1.538Z"/><path fill-rule="evenodd" d="M57.369 9.892c.035-.256.035-.477.035-.71 0-2.353-1.834-4.217-4.245-4.217-2.175 0-4.128 1.805-4.128 4.394 0 2.19 1.864 4.23 4.172 4.23 1.76 0 3.3-1.094 3.935-2.78H55.6a2.64 2.64 0 0 1-2.338 1.376c-1.245 0-2.316-.857-2.682-2.196h6.773l.016-.097Zm-6.786-1.244c.177-1.342 1.398-2.277 2.62-2.277 1.279 0 2.474.949 2.65 2.277h-5.27Z" clip-rule="evenodd"/><path d="M68.6 5.171h1.713c-.261-1.344-1.796-2.735-3.86-2.735-2.158 0-3.813 1.234-3.813 3.089 0 1.497 1.07 2.415 2.799 2.883l1.271.347c1.15.304 2.041.71 2.041 1.666 0 1.05-1.003 1.744-2.385 1.744-1.101 0-2.04-.433-2.312-1.337h-1.71c.28 1.658 1.756 2.76 4.033 2.76 2.527 0 3.982-1.329 3.982-3.151 0-1.939-1.731-2.717-3.097-3.054L66.21 7.11c-.84-.215-1.958-.65-1.953-1.68 0-.914.836-1.644 2.16-1.644 1.131 0 1.963.539 2.182 1.385ZM79.113 10.828c-.682 1.755-2.213 2.762-3.982 2.762-2.352 0-4.201-1.894-4.201-4.231 0-2.47 1.79-4.394 4.186-4.394 1.807 0 3.461 1.099 4.005 2.784h-1.734c-.463-.865-1.18-1.378-2.227-1.378-1.612 0-2.692 1.228-2.692 2.9 0 1.627 1.11 2.913 2.663 2.913.993 0 1.8-.502 2.248-1.356h1.734Z"/><path fill-rule="evenodd" d="M88.104 5.187v8.196h-1.538V12.11h-.03c-.577.976-1.612 1.479-2.78 1.479-2.397 0-4.35-1.805-4.35-4.172 0-2.618 1.879-4.453 4.29-4.453 1.198 0 2.204.444 2.84 1.376h.03V5.187h1.538ZM80.944 9.3c0 1.538 1.258 2.884 2.796 2.884 1.598 0 2.855-1.33 2.855-2.884 0-1.598-1.153-2.93-2.855-2.93-1.538 0-2.795 1.317-2.795 2.93ZM99.968 9.847c.03-.237.03-.445.03-.665l-.001-.11a4.375 4.375 0 0 0-.107-.86 4.168 4.168 0 0 0-.6-1.398c-.749-1.12-2.03-1.849-3.538-1.849-2.174 0-4.127 1.805-4.127 4.394 0 .274.029.545.084.81.389 1.858 2.069 3.42 4.088 3.42 1.76 0 3.299-1.094 3.935-2.78h-1.539a2.65 2.65 0 0 1-2.337 1.376c-1.246 0-2.317-.857-2.682-2.196h6.772l.007-.038.015-.104Zm-6.77-1.338c.241-1.267 1.42-2.138 2.599-2.138 1.278 0 2.473.949 2.65 2.277h-5.27c.005-.047.013-.093.022-.14Z" clip-rule="evenodd"/><path d="M60.146 5.189h1.718V6.53h-1.718v4.582c0 .805.39 1.029.825 1.07l.082.002a1.67 1.67 0 0 0 .598-.067c.18.409.425.783.727 1.113-.533.32-1.166.381-1.644.353a2.76 2.76 0 0 1-.666-.116c-.941-.286-1.237-.963-1.344-1.24h.007a2.361 2.361 0 0 1-.124-.79V6.532h-1.209V5.19h1.209V2.436h1.539v2.753Z"/></g><defs><clipPath id="a"><path fill="#fff" d="M0 0h100v16.025H0z"/></clipPath></defs></svg>
